layouts/icon-pack/spell_water.svg

<?xml version="1.0" encoding="UTF-8"?>
<svg width="1200pt" height="1200pt" version="1.1" viewBox="0 0 1200 1200" xmlns="http://www.w3.org/2000/svg">
 <path d="m1004.5 740.18c-4.4297-48.824-16.457-96.66-35.648-141.77-16.984-39.07-39.531-75.477-66.938-108.09-41.789-50.273-170.23-209.06-201.16-301.8l-30.07-79.688c-24.609-65.25-116.91-65.25-141.52 0l-29.977 79.688c-30.938 92.742-159.38 251.53-201.14 301.8-27.422 32.609-49.977 69.02-66.961 108.09-19.199 45.129-31.227 92.977-35.648 141.82-3.8828 43.77 1.4258 87.871 15.586 129.47 36.961 109.24 107.81 175.43 178.88 215.48 63.941 35.926 136.03 54.852 209.37 54.977 73.34 0.12109 145.49-18.562 209.55-54.273 71.414-39.844 142.62-106.03 179.86-215.46 14.328-41.828 19.719-86.199 15.82-130.24zm-354.3 183.82c-32.926 11.695-69.188 9.5781-100.53-5.8711-31.344-15.449-55.102-42.918-65.879-76.16-21.797-67.617 12.117-142.24 32.32-206.81 5.6016-17.93 24.961-87.047 36.867-99.469 5.1094-8.3008 13.332-14.211 22.828-16.406 17.883-4.5234 35.602 2.1562 47.648 14.625 13.711 14.203 57.773 143.95 67.078 165.84 7.3555 13.641 13.844 27.73 19.43 42.188 24.539 64.828 20.016 154.22-59.766 182.06z" fill="#fff"/>
</svg>

<?xml version="1.0" encoding="UTF-8" standalone="no"?>
<!DOCTYPE svg PUBLIC "-//W3C//DTD SVG 1.1//EN" "http://www.w3.org/Graphics/SVG/1.1/DTD/svg11.dtd">
<svg width="100%" height="100%" viewBox="0 0 385 512" version="1.1" xmlns="http://www.w3.org/2000/svg" xmlns:xlink="http://www.w3.org/1999/xlink" xml:space="preserve" xmlns:serif="http://www.serif.com/" style="fill-rule:evenodd;clip-rule:evenodd;stroke-linejoin:round;stroke-miterlimit:2;">
    <g transform="matrix(1,0,0,1,-194.205,-59.8945)">
        <g transform="matrix(0.473959,0,0,0.473959,102.16,31.507)">
            <path d="M1004.5,740.18C1000.07,691.356 988.043,643.52 968.852,598.41C951.868,559.34 929.321,522.933 901.914,490.32C860.125,440.047 731.684,281.26 700.754,188.52L670.684,108.832C646.075,43.582 553.774,43.582 529.164,108.832L499.187,188.52C468.249,281.262 339.807,440.05 298.047,490.32C270.625,522.929 248.07,559.34 231.086,598.41C211.887,643.539 199.859,691.387 195.438,740.23C191.555,784 196.864,828.101 211.024,869.7C247.985,978.94 318.834,1045.13 389.904,1085.18C453.845,1121.11 525.934,1140.03 599.274,1140.16C672.614,1140.28 744.764,1121.6 808.824,1085.88C880.238,1046.04 951.444,979.854 988.684,870.424C1003.01,828.596 1008.4,784.225 1004.5,740.184L1004.5,740.18ZM650.2,924C617.274,935.695 581.012,933.578 549.67,918.129C518.326,902.68 494.568,875.211 483.791,841.969C461.994,774.352 495.908,699.729 516.111,635.159C521.713,617.229 541.072,548.112 552.978,535.69C558.087,527.389 566.31,521.479 575.806,519.284C593.689,514.761 611.408,521.44 623.454,533.909C637.165,548.112 681.227,677.859 690.532,699.749C697.888,713.39 704.376,727.479 709.962,741.937C734.501,806.765 729.978,896.157 650.196,923.997L650.2,924Z" style="fill:white;fill-rule:nonzero;"/>
        </g>
    </g>
</svg>
